packages/sources/assets/src/assets/visa-electron.svg

<svg width="58" height="40" viewBox="0 0 58 40" fill="none" xmlns="http://www.w3.org/2000/svg">
<rect x="0.5" y="0.5" width="57" height="39" rx="3.5" fill="white" stroke="#F3F3F3"/>
<path d="M25.7516 27.4332H21.8901L24.3054 13.4325H28.1667L25.7516 27.4332Z" fill="#15195A"/>
<path d="M39.7499 13.7748C38.9882 13.4915 37.7802 13.1787 36.2865 13.1787C32.4731 13.1787 29.7878 15.0851 29.7713 17.8106C29.7396 19.8215 31.6939 20.9384 33.1556 21.6089C34.6495 22.2941 35.1574 22.7413 35.1574 23.352C35.1422 24.29 33.9502 24.7223 32.8384 24.7223C31.2967 24.7223 30.4707 24.4994 29.2153 23.9776L28.7069 23.7539L28.1665 26.8967C29.0722 27.2835 30.7408 27.6268 32.4731 27.6419C36.5249 27.6419 39.1627 25.765 39.1939 22.8605C39.2093 21.2667 38.1774 20.0454 35.9526 19.0475C34.602 18.4069 33.7749 17.9749 33.7749 17.3195C33.7908 16.7236 34.4745 16.1133 35.9991 16.1133C37.2544 16.0834 38.1768 16.3663 38.8755 16.6494L39.2247 16.7981L39.7499 13.7748Z" fill="#15195A"/>
<path fill-rule="evenodd" clip-rule="evenodd" d="M46.6618 13.4325H49.6486L52.7639 27.433H49.1885C49.1885 27.433 48.8386 25.8244 48.7278 25.3328H43.7699C43.6266 25.705 42.9595 27.433 42.9595 27.433H38.9078L44.6435 14.5941C45.0409 13.6855 45.7407 13.4325 46.6618 13.4325ZM46.4238 18.556C46.4238 18.556 45.2001 21.6689 44.8821 22.4732H48.0918C47.933 21.7733 47.2017 18.4219 47.2017 18.4219L46.9319 17.2156C46.8182 17.5262 46.6539 17.9533 46.543 18.2414C46.4679 18.4366 46.4173 18.568 46.4238 18.556Z" fill="#15195A"/>
<path fill-rule="evenodd" clip-rule="evenodd" d="M5.1589 13.4325H11.3716C12.2138 13.462 12.8971 13.7152 13.1194 14.6094L14.4696 21.0422C14.4697 21.0426 14.4699 21.043 14.47 21.0434L14.8832 22.9796L18.6649 13.4325H22.7481L16.6785 27.4184H12.5951L9.15337 15.253C7.96587 14.6021 6.6106 14.0786 5.09534 13.7154L5.1589 13.4325Z" fill="#15195A"/>
<path fill-rule="evenodd" clip-rule="evenodd" d="M33.36 35.07C33.3087 35.0793 33.2433 35.084 33.164 35.084C32.9447 35.084 32.7883 35.0187 32.695 34.888C32.6017 34.7573 32.555 34.566 32.555 34.314V30.016H33.129V34.356C33.129 34.4493 33.1453 34.5147 33.178 34.552C33.2107 34.5893 33.248 34.608 33.29 34.608H33.3425C33.3588 34.608 33.3833 34.6033 33.416 34.594L33.493 35.028C33.4557 35.0467 33.4113 35.0607 33.36 35.07ZM31.638 34.503V35H28.922V30.408H31.568V30.898H29.503V32.34H31.246V32.837H29.503V34.503H31.638ZM35.719 35.084C35.9523 35.084 36.16 35.049 36.342 34.979C36.524 34.909 36.6897 34.8273 36.839 34.734L36.636 34.356C36.51 34.4353 36.3782 34.4995 36.2405 34.5485C36.1028 34.5975 35.9523 34.622 35.789 34.622C35.4623 34.622 35.1975 34.5158 34.9945 34.3035C34.7915 34.0912 34.6783 33.803 34.655 33.439H36.951C36.9603 33.397 36.9662 33.3468 36.9685 33.2885C36.9708 33.2302 36.972 33.1707 36.972 33.11C36.972 32.8673 36.9417 32.648 36.881 32.452C36.8203 32.256 36.7328 32.088 36.6185 31.948C36.5042 31.808 36.3618 31.7007 36.1915 31.626C36.0212 31.5513 35.8287 31.514 35.614 31.514C35.418 31.514 35.229 31.5548 35.047 31.6365C34.865 31.7182 34.7028 31.836 34.5605 31.99C34.4182 32.144 34.3038 32.3318 34.2175 32.5535C34.1312 32.7752 34.088 33.026 34.088 33.306C34.088 33.586 34.13 33.8357 34.214 34.055C34.298 34.2743 34.4135 34.4598 34.5605 34.6115C34.7075 34.7632 34.8802 34.8798 35.0785 34.9615C35.2768 35.0432 35.4903 35.084 35.719 35.084ZM34.648 33.026H36.468C36.468 32.6807 36.3945 32.4182 36.2475 32.2385C36.1005 32.0588 35.894 31.969 35.628 31.969C35.5067 31.969 35.3912 31.9923 35.2815 32.039C35.1718 32.0857 35.0727 32.1545 34.984 32.2455C34.8953 32.3365 34.8218 32.4473 34.7635 32.578C34.7052 32.7087 34.6667 32.858 34.648 33.026ZM39.156 35.084C39.3613 35.084 39.5573 35.0455 39.744 34.9685C39.9307 34.8915 40.101 34.7853 40.255 34.65L40.003 34.265C39.8957 34.3583 39.7755 34.4388 39.6425 34.5065C39.5095 34.5742 39.3637 34.608 39.205 34.608C39.051 34.608 38.9087 34.5765 38.778 34.5135C38.6473 34.4505 38.5365 34.3618 38.4455 34.2475C38.3545 34.1332 38.2833 33.9967 38.232 33.838C38.1807 33.6793 38.155 33.502 38.155 33.306C38.155 33.11 38.1818 32.9315 38.2355 32.7705C38.2892 32.6095 38.3627 32.4707 38.456 32.354C38.5493 32.2373 38.6613 32.1475 38.792 32.0845C38.9227 32.0215 39.065 31.99 39.219 31.99C39.3543 31.99 39.4768 32.018 39.5865 32.074C39.6962 32.13 39.8 32.2023 39.898 32.291L40.192 31.913C40.0707 31.8057 39.9307 31.7123 39.772 31.633C39.6133 31.5537 39.422 31.514 39.198 31.514C38.9787 31.514 38.7698 31.5537 38.5715 31.633C38.3732 31.7123 38.1993 31.829 38.05 31.983C37.9007 32.137 37.7817 32.3248 37.693 32.5465C37.6043 32.7682 37.56 33.0213 37.56 33.306C37.56 33.586 37.6008 33.8368 37.6825 34.0585C37.7642 34.2802 37.8762 34.4668 38.0185 34.6185C38.1608 34.7702 38.33 34.8857 38.526 34.965C38.722 35.0443 38.932 35.084 39.156 35.084ZM42.3305 35.0455C42.2208 35.0712 42.1123 35.084 42.005 35.084C41.823 35.084 41.6702 35.056 41.5465 35C41.4228 34.944 41.3225 34.867 41.2455 34.769C41.1685 34.671 41.1137 34.552 41.081 34.412C41.0483 34.272 41.032 34.118 41.032 33.95V32.067H40.528V31.633L41.06 31.598L41.13 30.646H41.613V31.598H42.53V32.067H41.613V33.957C41.613 34.167 41.6515 34.3292 41.7285 34.4435C41.8055 34.5578 41.942 34.615 42.138 34.615C42.1987 34.615 42.264 34.6057 42.334 34.587C42.404 34.5683 42.467 34.5473 42.523 34.524L42.635 34.958C42.5417 34.9907 42.4402 35.0198 42.3305 35.0455ZM43.874 35V32.816C43.9907 32.5267 44.1272 32.3237 44.2835 32.207C44.4398 32.0903 44.5903 32.032 44.735 32.032C44.805 32.032 44.8633 32.0367 44.91 32.046C44.9567 32.0553 45.008 32.0693 45.064 32.088L45.176 31.584C45.0687 31.5373 44.9473 31.514 44.812 31.514C44.616 31.514 44.4352 31.577 44.2695 31.703C44.1038 31.829 43.9627 31.9993 43.846 32.214H43.825L43.776 31.598H43.3V35H43.874ZM47.5805 34.965C47.3915 35.0443 47.192 35.084 46.982 35.084C46.772 35.084 46.5725 35.0443 46.3835 34.965C46.1945 34.8857 46.0277 34.7702 45.883 34.6185C45.7383 34.4668 45.6228 34.2802 45.5365 34.0585C45.4502 33.8368 45.407 33.586 45.407 33.306C45.407 33.0213 45.4502 32.7682 45.5365 32.5465C45.6228 32.3248 45.7383 32.137 45.883 31.983C46.0277 31.829 46.1945 31.7123 46.3835 31.633C46.5725 31.5537 46.772 31.514 46.982 31.514C47.192 31.514 47.3915 31.5537 47.5805 31.633C47.7695 31.7123 47.9363 31.829 48.081 31.983C48.2257 32.137 48.3412 32.3248 48.4275 32.5465C48.5138 32.7682 48.557 33.0213 48.557 33.306C48.557 33.586 48.5138 33.8368 48.4275 34.0585C48.3412 34.2802 48.2257 34.4668 48.081 34.6185C47.9363 34.7702 47.7695 34.8857 47.5805 34.965ZM46.982 34.608C46.8373 34.608 46.7043 34.5765 46.583 34.5135C46.4617 34.4505 46.3578 34.3618 46.2715 34.2475C46.1852 34.1332 46.1187 33.9967 46.072 33.838C46.0253 33.6793 46.002 33.502 46.002 33.306C46.002 33.11 46.0253 32.9315 46.072 32.7705C46.1187 32.6095 46.1852 32.4707 46.2715 32.354C46.3578 32.2373 46.4617 32.1475 46.583 32.0845C46.7043 32.0215 46.8373 31.99 46.982 31.99C47.1267 31.99 47.2597 32.0215 47.381 32.0845C47.5023 32.1475 47.6062 32.2373 47.6925 32.354C47.7788 32.4707 47.8453 32.6095 47.892 32.7705C47.9387 32.9315 47.962 33.11 47.962 33.306C47.962 33.502 47.9387 33.6793 47.892 33.838C47.8453 33.9967 47.7788 34.1332 47.6925 34.2475C47.6062 34.3618 47.5023 34.4505 47.381 34.5135C47.2597 34.5765 47.1267 34.608 46.982 34.608ZM50.027 32.536V35H49.453V31.598H49.929L49.978 32.088H49.999C50.1623 31.9247 50.3338 31.7882 50.5135 31.6785C50.6932 31.5688 50.902 31.514 51.14 31.514C51.4993 31.514 51.7618 31.626 51.9275 31.85C52.0932 32.074 52.176 32.4053 52.176 32.844V35H51.602V32.921C51.602 32.599 51.5507 32.3668 51.448 32.2245C51.3453 32.0822 51.182 32.011 50.958 32.011C50.7807 32.011 50.6243 32.0553 50.489 32.144C50.3537 32.2327 50.1997 32.3633 50.027 32.536Z" fill="#15195A"/>
</svg>

<svg width="58" height="40" fill="none" xmlns="http://www.w3.org/2000/svg"><rect x=".5" y=".5" width="57" height="39" rx="3.5" fill="#fff" stroke="#F3F3F3"/><path d="M25.752 27.433H21.89l2.415-14h3.862l-2.415 14ZM39.75 13.775a10.074 10.074 0 0 0-3.464-.596c-3.813 0-6.498 1.906-6.515 4.632-.031 2.01 1.923 3.127 3.385 3.798 1.494.685 2.001 1.132 2.001 1.743-.015.938-1.207 1.37-2.319 1.37-1.541 0-2.367-.223-3.623-.744l-.508-.224-.54 3.143c.905.387 2.574.73 4.306.745 4.052 0 6.69-1.877 6.72-4.782.016-1.593-1.016-2.815-3.24-3.813-1.351-.64-2.178-1.072-2.178-1.727.016-.596.7-1.207 2.224-1.207a6.935 6.935 0 0 1 2.877.536l.349.15.525-3.024Z" fill="#15195A"/><path fill-rule="evenodd" clip-rule="evenodd" d="M46.662 13.432h2.987l3.115 14.001h-3.576s-.35-1.609-.46-2.1H43.77l-.81 2.1h-4.052l5.736-12.839c.397-.909 1.097-1.162 2.018-1.162Zm-.238 5.124s-1.224 3.113-1.542 3.917h3.21c-.159-.7-.89-4.051-.89-4.051l-.27-1.206c-.114.31-.278.737-.389 1.025-.075.196-.126.327-.12.315ZM5.159 13.432h6.213c.842.03 1.525.283 1.747 1.177l1.35 6.433.001.001.413 1.937 3.782-9.548h4.083l-6.07 13.986h-4.083L9.153 15.253c-1.187-.65-2.542-1.174-4.058-1.538l.064-.283ZM33.36 35.07c-.051.01-.117.014-.196.014-.22 0-.376-.065-.469-.196-.093-.13-.14-.322-.14-.574v-4.298h.574v4.34c0 .093.016.159.049.196.033.037.07.056.112.056h.053c.016 0 .04-.005.073-.014l.077.434a.493.493 0 0 1-.133.042Zm-1.722-.567V35h-2.716v-4.592h2.646v.49h-2.065v1.442h1.743v.497h-1.743v1.666h2.135Zm4.081.581c.233 0 .441-.035.623-.105a2.9 2.9 0 0 0 .497-.245l-.203-.378c-.126.08-.258.143-.396.192a1.338 1.338 0 0 1-.451.074c-.327 0-.592-.106-.794-.319-.203-.212-.317-.5-.34-.864h2.296a.863.863 0 0 0 .017-.15 3.51 3.51 0 0 0 .004-.179c0-.243-.03-.462-.091-.658a1.479 1.479 0 0 0-.263-.504 1.126 1.126 0 0 0-.427-.322 1.424 1.424 0 0 0-.577-.112c-.196 0-.385.04-.567.123a1.472 1.472 0 0 0-.486.353 1.76 1.76 0 0 0-.343.564c-.087.221-.13.472-.13.752s.042.53.126.749c.084.22.2.405.346.556.148.152.32.269.518.35.199.082.412.123.641.123Zm-1.071-2.058h1.82c0-.345-.074-.608-.22-.788-.148-.18-.354-.269-.62-.269a.875.875 0 0 0-.644.276 1.13 1.13 0 0 0-.22.333c-.059.13-.097.28-.116.448Zm4.508 2.058c.205 0 .401-.039.588-.116.187-.077.357-.183.511-.318l-.252-.385a1.77 1.77 0 0 1-.36.242.95.95 0 0 1-.438.101.944.944 0 0 1-.76-.36 1.285 1.285 0 0 1-.213-.41 1.724 1.724 0 0 1-.077-.532c0-.196.027-.374.08-.535.054-.162.128-.3.221-.417a.96.96 0 0 1 .763-.364c.135 0 .258.028.367.084.11.056.214.128.312.217l.294-.378a1.936 1.936 0 0 0-.42-.28 1.273 1.273 0 0 0-.574-.119c-.22 0-.428.04-.627.119-.198.08-.372.196-.521.35-.15.154-.268.342-.357.564a2.032 2.032 0 0 0-.133.759c0 .28.04.53.122.753.082.221.194.408.337.56.142.151.311.267.507.346.196.08.406.119.63.119Zm3.175-.039c-.11.026-.219.039-.326.039a1.11 1.11 0 0 1-.459-.084.788.788 0 0 1-.3-.231.9.9 0 0 1-.165-.357 2.032 2.032 0 0 1-.049-.462v-1.883h-.504v-.434l.532-.035.07-.952h.483v.952h.917v.469h-.917v1.89c0 .21.038.372.115.486.078.115.214.172.41.172.06 0 .126-.01.196-.028.07-.019.133-.04.189-.063l.112.434a2.971 2.971 0 0 1-.304.087ZM43.873 35v-2.184c.117-.29.253-.492.41-.609.156-.117.306-.175.451-.175a.917.917 0 0 1 .329.056l.112-.504a.904.904 0 0 0-.364-.07.877.877 0 0 0-.542.189 1.572 1.572 0 0 0-.424.511h-.021l-.049-.616H43.3V35h.574Zm3.706-.035c-.188.08-.388.119-.598.119-.21 0-.41-.04-.599-.119a1.473 1.473 0 0 1-.5-.347 1.686 1.686 0 0 1-.347-.56 2.061 2.061 0 0 1-.129-.752c0-.285.043-.538.13-.76a1.72 1.72 0 0 1 .346-.563c.145-.154.311-.27.5-.35.19-.08.389-.119.599-.119a1.472 1.472 0 0 1 1.099.469c.145.154.26.342.346.564.087.221.13.474.13.759 0 .28-.043.53-.13.753a1.686 1.686 0 0 1-.346.56 1.473 1.473 0 0 1-.5.346Zm-.598-.357a.853.853 0 0 1-.399-.094.917.917 0 0 1-.311-.267 1.265 1.265 0 0 1-.2-.409 1.882 1.882 0 0 1-.07-.532c0-.196.023-.374.07-.535.047-.162.113-.3.2-.417a.853.853 0 0 1 .71-.364.853.853 0 0 1 .71.364c.087.117.153.255.2.416.047.161.07.34.07.536s-.023.373-.07.532a1.265 1.265 0 0 1-.2.41.917.917 0 0 1-.311.266.853.853 0 0 1-.399.094Zm3.045-2.072V35h-.574v-3.402h.476l.049.49h.021c.163-.163.335-.3.514-.41.18-.11.389-.164.627-.164.36 0 .622.112.788.336.165.224.248.555.248.994V35h-.574v-2.079c0-.322-.051-.554-.154-.697-.103-.142-.266-.213-.49-.213a.836.836 0 0 0-.469.133c-.135.089-.29.22-.462.392Z" fill="#15195A"/></svg>
